!!!OTL: 108. Freylekhs
!!!Genre:	Freylekhs
!!!Mode:	Altered Dorian
!!!Listening/dance:	dance
!!!One_Mode:	yes
**kern
*part1
*staff1
*clefG2
*k[b-]
*g:dor
*M2/4
=1-
*>A
4g
8dL
8gJ
=2
8aL
8b-
8cc#X
8ddJ
=3
4cc#X
16b-LL
16aJ
8gJ
=4
8cc#X
(>8qee/
4dd)
8r
=5
4g
8dL
8gJ
=6
8aL
8b-
8cc#X
8ddJ
=7
4cc#X
16b-LL
16aJ
8gJ
*>A1
=8
4.g
8r
*>A2
=9:|!
4.g
8dd
=10
*>B
4gg
4ff
=11
4ee
4dd
=12
4ee
4dd
=13
4.cc#X
8b-
=14
8ddL
8dd
8dd
8ddJ
=15
4cc#X
16b-LL
16aJ
8gJ
=16
8cc#X
(>8qee/
[4.dd)
=17
8ddL]
8g
8b-
8ddJ
=18
4gg
4ff
=19
4ee
4dd
=20
4ee
4dd
=21
4.cc#X
8b-
=22
8ddL
8dd
8dd
8ddJ
=23
4cc#X
16b-LL
16aJ
8gJ
=24
4.g
8r
=25||
8r
8dL
8e
8f#XJ
=26
4g
24aLL
24b-
24aJ
8gJ
=27
8aL
8b-
8cc#X
8ddJ
=28
4cc#X
16b-LL
16aJ
8gJ
=29
8cc#X
(>8qee/
4.dd)
=30
4g
24aLL
24b-
24aJ
8gJ
=31
8aL
8b-
8cc#X
8ddJ
=32
4cc#X
16b-LL
16aJ
8gJ
=33
4g
4r
==
*-
